2 Export/Icons/Brands/Apple.svg

<svg xmlns="http://www.w3.org/2000/svg" xmlns:xlink="http://www.w3.org/1999/xlink" width="24" height="24" viewBox="0 0 24 24">
  <defs>
    <path id="apple-a" d="M8.62113767,20.6529524 C8.26659449,20.4160906 7.95177813,20.1260098 7.6886816,19.7909553 C7.40159907,19.4439077 7.13550429,19.0788707 6.89114683,18.701091 C6.31698176,17.8615807 5.86799367,16.9433664 5.55692513,15.9756809 C5.18214375,14.8498376 5,13.7719664 5,12.7173316 C5,11.540518 5.25485134,10.5136171 5.75106188,9.65161989 C6.11834763,8.97701341 6.66552844,8.41259265 7.32514367,8.01607396 C7.96227201,7.6188057 8.70433914,7.4014325 9.45390189,7.38644124 C9.71624885,7.38644124 10.0010827,7.42391938 10.3009078,7.49887566 C10.518281,7.55884068 10.780628,7.65628383 11.10294,7.77621388 C11.5151995,7.93362205 11.7400683,8.03106521 11.8150246,8.05355209 C12.0548847,8.14349963 12.2572666,8.18097776 12.4146748,8.18097776 C12.5346048,8.18097776 12.7070042,8.14349963 12.8981428,8.0835346 C13.0068293,8.04605647 13.2129591,7.97859582 13.5052886,7.85117015 C13.7946198,7.74623137 14.023986,7.65628383 14.2061298,7.58882319 C14.483468,7.50637128 14.7518114,7.43141501 14.9931707,7.39393687 C15.2855001,7.3489631 15.5755809,7.33397185 15.8536687,7.35645873 C16.3858582,7.39393687 16.873074,7.50637128 17.3078204,7.67127509 C18.0723744,7.97859582 18.6892646,8.45831598 19.1494961,9.14041809 C18.9546098,9.26034813 18.7747147,9.3997668 18.6060631,9.5526776 C18.2410261,9.87498959 17.9314567,10.2572666 17.6841009,10.6807696 C17.361789,11.2579329 17.1968852,11.9100525 17.2013825,12.5696677 C17.212626,13.3814442 17.4187557,14.0950279 17.8310152,14.7134172 C18.121096,15.1631548 18.50862,15.5484301 18.9808445,15.8647456 C19.213209,16.0221537 19.41709,16.1308403 19.6104772,16.2020488 C19.5205297,16.4831348 19.4215874,16.7567252 19.3069043,17.0265678 C19.046806,17.631465 18.7372366,18.210877 18.3699509,18.7580578 C18.0461398,19.2302823 17.7912884,19.5825768 17.5979012,19.8149413 C17.296577,20.1747314 17.0057466,20.444574 16.7134172,20.6372116 C16.3911052,20.850837 16.012576,20.964021 15.6250521,20.964021 C15.3627051,20.9752644 15.1003581,20.9415341 14.8500042,20.8688265 C14.632631,20.7976181 14.418256,20.7174148 14.2083784,20.6267177 C13.9887566,20.5262763 13.761639,20.4408262 13.5300242,20.3718664 C13.2451903,20.2969101 12.9528608,20.2609311 12.6575331,20.2616807 C12.357708,20.2616807 12.0653785,20.2991588 11.7880403,20.3703673 C11.5556759,20.4363288 11.330807,20.5172816 11.1081869,20.6139752 C10.7933705,20.7451487 10.5872408,20.8313484 10.4673107,20.8688265 C10.2244524,20.9407845 9.97559757,20.9842592 9.72524361,21 C9.33547098,21 8.9726826,20.8875656 8.61139335,20.6626968 L8.62113767,20.6529524 Z M13.7586408,6.81602399 C13.2489381,7.07087532 12.7647206,7.17881236 12.2797535,7.14283335 C12.2047972,6.65861581 12.2797535,6.16090614 12.4821354,5.61597402 C12.6620305,5.15124511 12.9018906,4.73148996 13.2316982,4.35670859 C13.576497,3.96693595 13.9887566,3.64462397 14.4534855,3.41225952 C14.9481969,3.15740818 15.4204214,3.02248688 15.8701591,3 C15.9301241,3.50970267 15.8701591,4.01190972 15.6827684,4.5515949 C15.5118681,5.03131507 15.2570167,5.47355709 14.9332056,5.87082535 C14.6071458,6.26059798 14.2023819,6.58290997 13.7443991,6.81527442 L13.7586408,6.81602399 Z"/>
  </defs>
  <g fill="none" fill-rule="evenodd">
    <polygon points="0 0 24 0 24 24 0 24"/>
    <mask id="apple-b" fill="#fff">
      <use xlink:href="#apple-a"/>
    </mask>
    <use fill="#000" xlink:href="#apple-a"/>
    <g fill="#000" mask="url(#apple-b)">
      <rect width="24" height="24"/>
    </g>
  </g>
</svg>

<svg xmlns="http://www.w3.org/2000/svg" xmlns:xlink="http://www.w3.org/1999/xlink" width="24" height="24" viewBox="0 0 24 24">
  <defs>
    <path id="apple-a" d="M8.621 20.653a4.031 4.031 0 0 1-.932-.862 11.562 11.562 0 0 1-.798-1.09 10.543 10.543 0 0 1-1.334-2.725C5.182 14.85 5 13.772 5 12.717c0-1.176.255-2.203.751-3.065a4.333 4.333 0 0 1 1.574-1.636 4.197 4.197 0 0 1 2.129-.63c.262 0 .547.038.847.113.217.06.48.157.802.277.412.158.637.255.712.278.24.09.442.127.6.127.12 0 .292-.038.483-.097.109-.038.315-.105.607-.233.29-.105.519-.195.701-.262.277-.083.546-.158.787-.195.293-.045.583-.06.86-.038a5.12 5.12 0 0 1 1.455.315 3.923 3.923 0 0 1 1.841 1.47 4.59 4.59 0 0 0-1.465 1.54 3.822 3.822 0 0 0-.483 1.889c.012.811.218 1.525.63 2.143.29.45.678.835 1.15 1.152.232.157.436.266.63.337-.09.281-.19.555-.304.825-.26.604-.57 1.184-.937 1.731a15.59 15.59 0 0 1-.772 1.057c-.301.36-.592.63-.885.822a1.97 1.97 0 0 1-1.088.327 2.413 2.413 0 0 1-.775-.095 7.512 7.512 0 0 1-.642-.242c-.22-.1-.446-.186-.678-.255a3.498 3.498 0 0 0-1.742-.001 5.402 5.402 0 0 0-.68.243c-.315.131-.52.217-.64.255a3.351 3.351 0 0 1-.743.131c-.39 0-.752-.112-1.114-.337l.01-.01zM13.76 6.816c-.51.255-.994.363-1.48.327-.074-.484 0-.982.203-1.527.18-.465.42-.885.75-1.26.344-.39.757-.711 1.221-.944.495-.255.967-.39 1.417-.412.06.51 0 1.012-.187 1.552-.171.48-.426.922-.75 1.319a3.76 3.76 0 0 1-1.189.944l.015.001z"/>
  </defs>
  <g fill="none" fill-rule="evenodd">
    <polygon points="0 0 24 0 24 24 0 24"/>
    <mask id="apple-b" fill="#fff">
      <use xlink:href="#apple-a"/>
    </mask>
    <use fill="#000" xlink:href="#apple-a"/>
    <g fill="#000" mask="url(#apple-b)">
      <rect width="24" height="24"/>
    </g>
  </g>
</svg>
